dist/assets/img/home-main.svg

<svg width="24" height="24" viewBox="0 0 24 24" fill="none" xmlns="http://www.w3.org/2000/svg">
<path d="M21.3915 14.118V14.4401C21.3915 16.6854 21.3915 18.9307 21.3915 21.176C21.3915 22.7927 20.2914 23.8948 18.6784 23.8948C17.4931 23.8948 16.3079 23.8948 15.1229 23.8948C14.5506 23.8948 14.2848 23.6257 14.2848 23.0459C14.2848 21.2602 14.2848 19.4748 14.2848 17.6895C14.2848 16.8457 13.8123 16.377 12.9657 16.3741C12.2954 16.3741 11.6251 16.3713 10.9543 16.3741C10.1682 16.3774 9.68448 16.8584 9.68354 17.6398C9.68136 19.4332 9.68136 21.2265 9.68354 23.0196C9.68354 23.6313 9.42573 23.892 8.82104 23.892C7.63604 23.892 6.45104 23.892 5.26604 23.892C3.68354 23.892 2.5787 22.7843 2.57729 21.1971C2.57542 18.9443 2.57542 16.6912 2.57729 14.4377V14.118H2.27308C1.31167 14.1138 0.5087 13.6062 0.177294 12.7521C-0.177081 11.8404 0.00291887 11.0177 0.689169 10.323C2.16011 8.83898 3.64229 7.36617 5.11979 5.88867C6.85089 4.15758 8.6087 2.45227 10.3018 0.685079C11.1775 -0.228984 12.7689 -0.225703 13.66 0.678985C16.835 3.90961 20.0364 7.11414 23.2642 10.2926C24.2617 11.2798 24.1295 13.113 22.8765 13.8148C22.5521 14.0046 22.1849 14.1089 21.8092 14.118C21.6789 14.118 21.5481 14.118 21.3915 14.118ZM15.6878 22.4895H18.6503C19.5292 22.4895 19.9881 22.0291 19.9881 21.1479C19.9881 18.6063 19.9881 16.0646 19.9881 13.5227C19.9881 12.9954 20.2693 12.717 20.7976 12.7146C21.1257 12.7146 21.4539 12.7193 21.782 12.7118C21.951 12.7096 22.1146 12.6525 22.2482 12.5489C22.3817 12.4454 22.4779 12.3011 22.5221 12.138C22.6384 11.7457 22.45 11.4696 22.187 11.2066C19.0135 8.03945 15.8425 4.8693 12.6737 1.69617C12.1881 1.21055 11.7789 1.21289 11.2885 1.7032L2.81964 10.173C2.43339 10.5593 2.04526 10.9427 1.66229 11.3313C1.40729 11.5896 1.33417 11.8976 1.47854 12.2327C1.61917 12.5557 1.88354 12.7146 2.23933 12.7141H3.0362C3.74495 12.7141 3.98026 12.9485 3.98026 13.6465C3.98026 16.1496 3.99714 18.6527 3.97089 21.1554C3.96245 22.0076 4.58026 22.5218 5.30214 22.4965C6.20542 22.4651 7.11057 22.489 8.01526 22.489H8.27964V22.1805C8.27964 20.5976 8.26651 19.0146 8.29042 17.4321C8.3087 16.1866 9.30854 15.0926 10.5521 15.0091C11.506 14.9454 12.4679 14.996 13.426 14.9988C13.5038 15.0025 13.581 15.0146 13.6562 15.0349C14.875 15.3129 15.6793 16.3127 15.6868 17.5802C15.6962 19.1163 15.6868 20.6524 15.6868 22.1885C15.6882 22.279 15.6878 22.3709 15.6878 22.4895Z" fill="#161616"/>
</svg>

<svg width="24" height="24" fill="none" xmlns="http://www.w3.org/2000/svg"><path d="M21.392 14.118v7.058c0 1.617-1.1 2.719-2.714 2.719h-3.555c-.572 0-.838-.27-.838-.85V17.69c0-.843-.473-1.312-1.32-1.315-.67 0-1.34-.003-2.01 0-.787.003-1.27.484-1.271 1.266a2212.71 2212.71 0 000 5.38c0 .611-.258.872-.863.872H5.266c-1.582 0-2.687-1.108-2.689-2.695-.002-2.253-.002-4.506 0-6.76v-.319h-.304c-.961-.004-1.764-.512-2.096-1.366-.354-.912-.174-1.734.512-2.429C2.16 8.839 3.642 7.366 5.12 5.889 6.852 4.158 8.61 2.452 10.303.685c.876-.914 2.467-.91 3.358-.006a829.342 829.342 0 009.604 9.614c.998.987.866 2.82-.387 3.522a2.22 2.22 0 01-1.068.303h-.418zm-5.704 8.371h2.962c.88 0 1.338-.46 1.338-1.341v-7.625c0-.528.281-.806.81-.808.328 0 .656.004.984-.003a.777.777 0 00.74-.574c.116-.392-.072-.668-.335-.931a7986.86 7986.86 0 01-9.513-9.51c-.486-.486-.895-.484-1.385.006l-8.47 8.47c-.386.386-.774.77-1.157 1.158-.255.259-.328.567-.183.902.14.323.405.482.76.481h.797c.709 0 .944.234.944.932 0 2.504.017 5.007-.01 7.51-.008.852.61 1.366 1.332 1.34.903-.03 1.809-.007 2.713-.007h.265v-.309c0-1.582-.013-3.165.01-4.748.019-1.245 1.019-2.34 2.262-2.423.954-.064 1.916-.013 2.874-.01.078.003.155.016.23.036 1.219.278 2.023 1.278 2.03 2.545.01 1.536 0 3.072 0 4.609.002.09.002.182.002.3z" fill="#161616"/></svg>
